images/icons/telegram.svg

<svg fill="none" height="24" viewBox="0 0 24 24" width="24" xmlns="http://www.w3.org/2000/svg" xmlns:xlink="http://www.w3.org/1999/xlink"><clipPath id="a"><path d="m0 0h24v24h-24z"/></clipPath><g clip-path="url(#a)"><path d="m23.9323 3.82074-3.6217 16.97196c-.2732 1.1978-.9858 1.496-1.9984.9317l-5.5183-4.0407-2.6628 2.5447c-.29465.2928-.5411.5377-1.10901.5377l.39646-5.5846 10.22775-9.18337c.4446-.39395-.0965-.61222-.6912-.21827l-12.64397 7.91104-5.443338-1.6929c-1.184034-.3674-1.205465-1.1766.246448-1.7409l21.29116-8.15059c.9858-.36734 1.8484.21827 1.5269 1.71423z" fill="#fff"/></g></svg>

<svg width="24" height="24" viewBox="0 0 24 24" fill="none" xmlns="http://www.w3.org/2000/svg">
<g clip-path="url(#clip0_1432_8772)">
<path d="M23.9323 3.82074L20.3106 20.7927C20.0374 21.9905 19.3248 22.2887 18.3122 21.7244L12.7939 17.6837L10.1311 20.2284C9.83645 20.5212 9.59 20.7661 9.02209 20.7661L9.41855 15.1815L19.6463 5.99813C20.0909 5.60418 19.5498 5.38591 18.9551 5.77986L6.31113 13.6909L0.867792 11.998C-0.316242 11.6306 -0.337673 10.8214 1.11424 10.2571L22.4054 2.10651C23.3912 1.73917 24.2538 2.32478 23.9323 3.82074V3.82074Z" fill="white"/>
</g>
<defs>
<clipPath id="clip0_1432_8772">
<rect width="24" height="24" fill="white"/>
</clipPath>
</defs>
</svg>
